icons/svg/crypto/bvnd.svg

<svg fill="none" height="32" viewBox="0 0 32 32" width="32" xmlns="http://www.w3.org/2000/svg"><path d="m16 32c8.8366 0 16-7.1634 16-16 0-8.83656-7.1634-16-16-16-8.83656 0-16 7.16344-16 16 0 8.8366 7.16344 16 16 16z" fill="#f1b90c"/><path d="m12 12h-3.66669v-3.66669h3.66669zm12-3.66669h-3.6667v3.66669h3.6667zm0 11.99999h-3.6667v3.6667h3.6667zm0-2.3333h-6v6h-9.66669v-9.6667h5.99999v-5.99999h3.6667v5.99999h6zm-9.6667 0h-2.3333v2.3333h2.3333z" fill="#fff"/></svg>

<svg fill="none" height="32" width="32" xmlns="http://www.w3.org/2000/svg">
    <path d="M16 32c8.837 0 16-7.163 16-16S24.837 0 16 0 0 7.163 0 16s7.163 16 16 16Z"
        fill="#F1B90C" />
    <path d="M12 12H8.333V8.333H12V12Zm12-3.667h-3.667V12H24V8.333Zm0 12h-3.667V24H24v-3.667ZM24 18h-6v6H8.333v-9.667h6v-6H18v6h6V18Zm-9.667 0H12v2.333h2.333V18Z"
        fill="#fff" />
</svg>
